app/dist/common/images/peak-rare-earths-ltd.svg

<svg height="18" viewBox="0 0 18 18" width="18" xmlns="http://www.w3.org/2000/svg"><path d="m0 0h18v18h-18z" fill="#f0f3fa"/><path d="m10.3 5 5.7 7h-.78l-4.92-6.05-2.9 3.42 2.15 2.63h-5.1l2.15-2.63-.69-.94-3.04 3.57h-.87l3.9-4.58 1.16 1.46zm-3.25 4.82-1.45 1.74h2.82l-1.36-1.74z" fill="#4bbfbe"/></svg>

<!-- by TradingView --><svg width="18" height="18" viewBox="0 0 18 18" xmlns="http://www.w3.org/2000/svg"><path fill="#F0F3FA" d="M0 0h18v18H0z"/><path d="m10.3 5 5.7 7h-.78L10.3 5.95 7.4 9.37 9.55 12h-5.1L6.6 9.37l-.69-.94L2.87 12H2l3.9-4.58 1.16 1.46L10.3 5ZM7.05 9.82 5.6 11.56h2.82L7.06 9.82Z" fill="#4BBFBE"/></svg>
